svgs/sharp-light/command.svg

<svg xmlns="http://www.w3.org/2000/svg" viewBox="0 0 512 512"><!--! Font Awesome Pro 6.6.0 by @fontawesome - https://fontawesome.com License - https://fontawesome.com/license (Commercial License) Copyright 2024 Fonticons, Inc. --><path d="M0 0L16 0 160 0l16 0 0 16 0 128 160 0 0-128 0-16 16 0L496 0l16 0 0 16 0 144 0 16-16 0-128 0 0 160 128 0 16 0 0 16 0 144 0 16-16 0-144 0-16 0 0-16 0-128-160 0 0 128 0 16-16 0L16 512 0 512l0-16L0 352l0-16 16 0 128 0 0-160L16 176 0 176l0-16L0 16 0 0zM144 144l0-112L32 32l0 112 112 0zm32 192l160 0 0-160-160 0 0 160zm-32 32L32 368l0 112 112 0 0-112zm224 0l0 112 112 0 0-112-112 0zm0-224l112 0 0-112L368 32l0 112z"/></svg>

<svg xmlns="http://www.w3.org/2000/svg" viewBox="0 0 512 512"><!--! Font Awesome Pro 6.4.2 by @fontawesome - https://fontawesome.com License - https://fontawesome.com/license (Commercial License) Copyright 2023 Fonticons, Inc. --><path d="M0 0H16 160h16V16 144H336V16 0h16H496h16V16 160v16H496 368V336H496h16v16V496v16H496 352 336V496 368H176V496v16H160 16 0V496 352 336H16 144V176H16 0V160 16 0zM144 144V32H32V144H144zm32 192H336V176H176V336zm-32 32H32V480H144V368zm224 0V480H480V368H368zm0-224H480V32H368V144z"/></svg>
